X:1
T: Lord Randall's Bride
C:
R:Reel
Q: 232
K:D
M:4/4
L:1/8
|:A2|D3E F2 B2|A2 F2 F2 B2|A2 F2 GF ED|C2 E2 E3F|
D3E F2 B2|A2 Bc d2 cB|AB AF EG FE|F2 D2 D2 A2|
d3c ed cB|A2 F2 F2 A2|d3c Bc BA|F2 B2 B2 d2|
A2 Bc d2 e2|fe dc d2 B2|AB AF EG FE|F2 D2 D2:|
